src/assets/icons/numbers,fancy,dice-01.svg

<svg width="48" height="48" viewBox="0 0 48 48" fill="none" xmlns="http://www.w3.org/2000/svg">
<path opacity="0.4" d="M4.96973 17.0797C4.96973 13.8175 4.96973 12.1864 5.98316 11.173C6.9966 10.1595 8.62771 10.1595 11.8899 10.1595H30.9204C34.1826 10.1595 35.8137 10.1595 36.8272 11.173C37.8406 12.1864 37.8406 13.8175 37.8406 17.0797V36.1102C37.8406 39.3724 37.8406 41.0035 36.8272 42.017C35.8137 43.0304 34.1826 43.0304 30.9204 43.0304H11.8899C8.6277 43.0304 6.9966 43.0304 5.98316 42.017C4.96973 41.0035 4.96973 39.3724 4.96973 36.1102V17.0797Z" fill="black"/>
<circle cx="21.4051" cy="26.595" r="3.46009" transform="rotate(90 21.4051 26.595)" fill="black"/>
<path opacity="0.8" d="M5.9834 11.1729L8.34273 8.69486C10.0913 6.85828 10.9656 5.93999 12.0977 5.45468C13.2299 4.96936 14.4978 4.96936 17.0337 4.96936H36.1104C39.3726 4.96936 41.0037 4.96936 42.0171 5.9828L36.827 11.1729C35.8135 10.1595 34.1824 10.1595 30.9202 10.1595H11.8897C8.62751 10.1595 6.99684 10.1595 5.9834 11.1729Z" fill="black"/>
<path d="M36.8267 42.0172L39.3051 39.6574C41.1415 37.9089 42.0597 37.0346 42.545 35.9025C43.0303 34.7703 43.0303 33.5025 43.0303 30.9667L43.0303 11.8898C43.0303 8.62763 43.0303 6.9965 42.0168 5.98306L36.8267 11.1732C37.8401 12.1867 37.8401 13.8178 37.8401 17.08L37.8401 36.1105C37.8401 39.3727 37.8401 41.0037 36.8267 42.0172Z" fill="black"/>
</svg>

<svg xmlns="http://www.w3.org/2000/svg" width="48" height="48" fill="none" viewBox="0 0 48 48">
  <path fill="#000" d="M4.97 17.08c0-3.262 0-4.894 1.013-5.907 1.014-1.014 2.645-1.014 5.907-1.014h19.03c3.263 0 4.894 0 5.907 1.014 1.014 1.013 1.014 2.645 1.014 5.907v19.03c0 3.262 0 4.894-1.014 5.907-1.013 1.013-2.644 1.013-5.907 1.013H11.89c-3.262 0-4.893 0-5.907-1.013C4.97 41.003 4.97 39.372 4.97 36.11V17.08z" opacity=".4"/>
  <path fill="#000" d="M5.983 11.173l2.36-2.478c1.748-1.837 2.623-2.755 3.755-3.24 1.132-.486 2.4-.486 4.936-.486H36.11c3.263 0 4.894 0 5.907 1.014l-5.19 5.19c-1.014-1.014-2.645-1.014-5.907-1.014H11.89c-3.262 0-4.893 0-5.907 1.014z" opacity=".8"/>
  <path fill="#000" d="M36.827 42.017l2.478-2.36c1.837-1.748 2.755-2.622 3.24-3.754.485-1.133.485-2.4.485-4.936V11.89c0-3.262 0-4.894-1.013-5.907l-5.19 5.19c1.013 1.014 1.013 2.645 1.013 5.907v19.03c0 3.263 0 4.894-1.013 5.907z"/>
  <circle cx="13.405" cy="26.595" r="4" fill="#000" transform="rotate(90 13.405 26.595)"/>
  <circle cx="29.405" cy="26.595" r="4" fill="#000" transform="rotate(90 29.405 26.595)"/>
  <circle cx="13.405" cy="36.595" r="4" fill="#000" transform="rotate(90 13.405 36.595)"/>
  <circle cx="29.405" cy="36.595" r="4" fill="#000" transform="rotate(90 29.405 36.595)"/>
  <circle cx="13.405" cy="16.595" r="4" fill="#000" transform="rotate(90 13.405 16.595)"/>
  <circle cx="29.405" cy="16.595" r="4" fill="#000" transform="rotate(90 29.405 16.595)"/>
</svg>
